src/img/linkedin.svg

<svg id="a1d65f7b-ebf6-43d5-8b82-16fe6b903ad5" data-name="Слой 1" xmlns="http://www.w3.org/2000/svg" viewBox="0 0 56 56"><defs><style>.aea8d1da-b710-42da-a51e-4bdfb998e8a8{fill:#ea496a;}</style></defs><path class="aea8d1da-b710-42da-a51e-4bdfb998e8a8" d="M28,2A26,26,0,1,1,2,28,26,26,0,0,1,28,2m0-2h0A28,28,0,0,0,0,28H0A28,28,0,0,0,28,56h0A28,28,0,0,0,56,28h0A28,28,0,0,0,28,0Z"/><path class="aea8d1da-b710-42da-a51e-4bdfb998e8a8" d="M40,40h0V31.2c0-4.31-.93-7.63-6-7.63a5.23,5.23,0,0,0-4.71,2.59h-.07V24H24.49V40h5V32.06c0-2.08.39-4.1,3-4.1S35,30.34,35,32.2V40Z"/><path class="aea8d1da-b710-42da-a51e-4bdfb998e8a8" d="M16.4,24h5V40h-5Z"/><path class="aea8d1da-b710-42da-a51e-4bdfb998e8a8" d="M18.88,16a2.9,2.9,0,1,0,2.88,2.88A2.88,2.88,0,0,0,18.88,16Z"/></svg>

<?xml version="1.0" encoding="utf-8"?>
<!-- Generator: Adobe Illustrator 25.1.0, SVG Export Plug-In . SVG Version: 6.00 Build 0)  -->
<svg version="1.1" id="a1d65f7b-ebf6-43d5-8b82-16fe6b903ad5"
	 xmlns="http://www.w3.org/2000/svg" xmlns:xlink="http://www.w3.org/1999/xlink" x="0px" y="0px" viewBox="0 0 56 56"
	 style="enable-background:new 0 0 56 56;" xml:space="preserve">
<style type="text/css">
	.st0{fill:#FF6A2F;}
</style>
<path class="st0" d="M28,2c14.4,0,26,11.6,26,26S42.4,54,28,54S2,42.4,2,28S13.6,2,28,2 M28,0L28,0C12.5,0,0,12.5,0,28l0,0
	c0,15.5,12.5,28,28,28l0,0c15.5,0,28-12.5,28-28l0,0C56,12.5,43.5,0,28,0z"/>
<path class="st0" d="M40,40L40,40v-8.8c0-4.3-0.9-7.6-6-7.6c-1.9-0.1-3.7,0.9-4.7,2.6h-0.1V24h-4.7v16h5v-7.9c0-2.1,0.4-4.1,3-4.1
	s2.5,2.4,2.5,4.2V40H40z"/>
<path class="st0" d="M16.4,24h5v16h-5V24z"/>
<path class="st0" d="M18.9,16c-1.6,0-2.9,1.3-2.9,2.9c0,1.6,1.3,2.9,2.9,2.9c1.6,0,2.9-1.3,2.9-2.9c0,0,0,0,0,0
	C21.8,17.3,20.5,16,18.9,16L18.9,16z"/>
</svg>
